X:23025
T:Weavers March
R:March
C:Trad. 18C
O:Scotland
Z:Paul Hardy's Session Tunebook 2015 (see www.paulhardy.net). Creative Commons cc by-nc-sa licenced.
M:2/2
L:1/8
Q:1/2=70
K:D
FG|"D"A2AG FGA2|"G"B2B2 "A"A3A|"G"Bcd2 "A"cde2|"G"g2f2"A"e4|"D"A2AG FGA2|"G"B2B2 "A"A3A|"G"BcdB "A"cdec|"A7"e2dc "D"d2:|
|:de|"D"f2gf "A"e2fe|"D"dfed "A"c2dc|"G"Bcd2 "A"c2d2|"G"g2f2 "A"e4|"D"A2AG FGA2|"G"B2B2 "A"A3A|"G"Bcd2 "A"cde2|"A7"e2dc "D"d2:|

